src/img/icon-folder.svg

<svg width="24" height="24" viewBox="0 0 24 24" fill="none" xmlns="http://www.w3.org/2000/svg">
<path fill-rule="evenodd" clip-rule="evenodd" d="M19.5 20.5002H4.5C3.13967 20.5169 2.02193 19.4305 2 18.0702V5.93019L2 5.9302C2.02193 4.56994 3.13966 3.4835 4.49999 3.50019H9.09999V3.50019C9.39907 3.50217 9.68157 3.63791 9.86999 3.87019L12.47 7.05019H19.47C20.8337 7.01688 21.9663 8.0954 21.9996 9.45914C21.9997 9.46616 21.9999 9.47318 22 9.48019V18.0702V18.0702C21.9781 19.4304 20.8603 20.5169 19.5 20.5002L19.5 20.5002ZM4 13.7602V18.0702C4.01556 18.3238 4.23374 18.5167 4.48732 18.5011C4.49155 18.5009 4.49578 18.5006 4.5 18.5002H19.5C19.753 18.5228 19.9765 18.3359 19.999 18.0829C19.9994 18.0787 19.9997 18.0744 20 18.0702V9.48019C19.9844 9.22662 19.7663 9.03368 19.5127 9.04924C19.5084 9.0495 19.5042 9.04982 19.5 9.05019H12C11.7009 9.04822 11.4184 8.91247 11.23 8.68019L8.63 5.50019H4.5C4.24695 5.47763 4.02352 5.66447 4.00095 5.91751C4.00058 5.92173 4.00026 5.92596 4 5.93019V13.7602Z" fill="#000000"/>
</svg>

<svg xmlns="http://www.w3.org/2000/svg" fill="none" width="24" height="24" viewBox="0 0 24 24"" fill="#000">
  <path d="M19.5 20.5h-15A2.47 2.47 0 0 1 2 18.07V5.93A2.47 2.47 0 0 1 4.5 3.5h4.6a1 1 0 0 1 .77.37l2.6 3.18h7A2.47 2.47 0 0 1 22 9.46v8.61a2.47 2.47 0 0 1-2.5 2.43zM4 13.76v4.31a.46.46 0 0 0 .5.43h15a.46.46 0 0 0 .499-.417L20 18.07V9.48a.46.46 0 0 0-.5-.43H12a1 1 0 0 1-.77-.37L8.63 5.5H4.5a.46.46 0 0 0-.5.43v7.83z fill-rule="evenodd" clip-rule="evenodd"/>
</svg>
